X:1
T:Zwölf Gesänge, Op.3
T:Der Mond
T:Zwölf Gesänge, Op.3
T:10. Der Mond
T:Louise Reichardt
T:(Aus des Knaben Wunderhorn)
T:OpenScore (CC0)
T:OpenScore (CC0)
T:OpenScore (CC0)
C:Louise Reichardt
Z:(Aus des Knaben Wunderhorn)
Z:OpenScore (CC0)
%%score 1 { 2 | ( 3 4 ) }
L:1/8
Q:1/4=80
M:2/4
K:E
V:1 treble nm="Voice"
V:2 treble nm="Piano"
V:3 bass 
V:4 bass 
V:1
"^Langsam und ausserst Sanft und Wehmüthig" G2 G2 | B2 B2 | (BA) A2 | G2 G2 | F2 A2 | G2 G2 | %6
w: Wei- det|mei- ne|Schäf- * lein,|wei- det,|Daph- nis|spal- tet|
 F2 F2 | E2 z2 | G2 G2 | B2 B2 | (BA) A2 | G2 G2 | F2 A2 | G2 G2 | F2 F2 | E2 z2 | F2 F2 | =G2 G2 | %18
w: mir das|Herz,|wer mag|ha- ben|ihn * be-|lei- det?|wei- nen|möch- ten|Stein und|Erz;|kal- ter|Wind, halt|
{B} A2 =G2 | =G2 F2 | F2 F2 | =G2 (GB) | (B2 A) =G |"^[ ]"{=G} F4 | ^G2 G2 | G2 G2 | G2 G2 | %27
w: ein die|Flü- gel,|rüh- re|nicht das *|kran- * ke|Herz,|mei- de|je- nen|Berg und|
 B2 A2 | F2 A2 | G2 G2 | F2 F2 | E2 z2 | !fermata!z4 :| %33
w: Hü- gel|Daph- nis|liegt in|ban- gen|Schmerz.||
V:2
 [EG][I:staff +1]B,[I:staff -1][EG][I:staff +1]B, | %1
[I:staff -1] [GB][I:staff +1]B,[I:staff -1][GB][I:staff +1]B, | %2
[I:staff -1] [FA][I:staff +1]B,[I:staff -1][FA][I:staff +1]B, | %3
[I:staff -1] [EG][I:staff +1]B,[I:staff -1][EG][I:staff +1]B, | %4
[I:staff -1] [DF][I:staff +1]B,[I:staff -1][FA][I:staff +1]B, | %5
[I:staff -1] [EG][I:staff +1]B,[I:staff -1][EG][I:staff +1]B, | %6
[I:staff -1] [DF][I:staff +1]B,[I:staff -1][DF][I:staff +1]B, | %7
[I:staff -1] E[I:staff +1]B,[I:staff -1]E[I:staff +1]B, | %8
[I:staff -1] [EG][I:staff +1]B,[I:staff -1][EG][I:staff +1]B, | %9
[I:staff -1] [GB][I:staff +1]B,[I:staff -1][GB][I:staff +1]B, | %10
[I:staff -1] [FA][I:staff +1]B,[I:staff -1][FA][I:staff +1]B, | %11
[I:staff -1] [EG][I:staff +1]B,[I:staff -1][EG][I:staff +1]B, | %12
[I:staff -1] [DF][I:staff +1]B,[I:staff -1][FA][I:staff +1]B, | %13
[I:staff -1] [EG][I:staff +1]B,[I:staff -1][EG][I:staff +1]B, | %14
[I:staff -1] [DF][I:staff +1]B,[I:staff -1][DF][I:staff +1]B, | %15
[I:staff -1] E[I:staff +1]B,[I:staff -1]E[I:staff +1]B, | %16
[I:staff -1] [DF][I:staff +1]B,[I:staff -1][DF][I:staff +1]B, | %17
[I:staff -1] [E=G][I:staff +1]B,[I:staff -1][EG][I:staff +1]B, | %18
[I:staff -1] [FA][I:staff +1]B,[I:staff -1][E=G][I:staff +1]B, | %19
[I:staff -1] [DF][I:staff +1]B,[I:staff -1][DF][I:staff +1]B, | %20
[I:staff -1] [DF][I:staff +1]B,[I:staff -1][DF][I:staff +1]B, | %21
[I:staff -1] [E=G][I:staff +1]B,[I:staff -1][EG][I:staff +1]B, | %22
[I:staff -1] [GB][I:staff +1]B,[I:staff -1][E=G][I:staff +1]B, | %23
[I:staff -1] [DF][I:staff +1]B,[I:staff -1][DF][I:staff +1]B, | %24
[I:staff -1] [E^G][I:staff +1]B,[I:staff -1][EG][I:staff +1]B, | %25
[I:staff -1] [EG][I:staff +1]B,[I:staff -1][EG][I:staff +1]B, | %26
[I:staff -1] [EG][I:staff +1]B,[I:staff -1][EG][I:staff +1]B, | %27
[I:staff -1] [EA][I:staff +1]A,[I:staff -1][EA][I:staff +1]A, | %28
[I:staff -1] [FA][I:staff +1]B,[I:staff -1][FA][I:staff +1]B, | %29
[I:staff -1] [EG][I:staff +1]B,[I:staff -1][EG][I:staff +1]B, | %30
[I:staff -1] [DF][I:staff +1]B,[I:staff -1][DF][I:staff +1]B, | %31
[I:staff -1] E[I:staff +1]B,[I:staff -1]E[I:staff +1]B, |[I:staff -1] !fermata!E4 :| %33
V:3
 E,4 | E,4 | D,4 | E,4 | B,,4 | E,4 | B,,4 | E,4 | E,4 | E,4 | D,4 | E,4 | B,,4 | B,,4 | B,,4 | %15
 E,4 | B,,4 | E,4 | D,2 E,2 | B,,4 | B,,4 | E,4 | E,4 | B,,4 | E,4 | E,4 | D,4 | C,4 | B,,4 | %29
 B,,4 | B,,4 | E,4 | !fermata![E,,G,,B,,E,]4 :| %33
V:4
 x4 | x4 | x4 | x4 | x4 | x4 | x4 | G, x G, x | x4 | x4 | x4 | x4 | x4 | x4 | x4 | G, x G, x | x4 | %17
 x4 | x4 | x4 | x4 | x4 | x4 | x4 | x4 | x4 | x4 | x4 | x4 | x4 | x4 | G, x G, x | [G,B,]4 :| %33

